X:19503
T:Silent Night (in G)
T:Stille Nacht! Heilige Nacht!
R:Air
C:Franz Xaver Gruber, 1818
O:Austria
Z:Paul Hardy's Xmas Parts Tunebook 2022 (see www.paulhardy.net). Creative Commons cc by-nc-sa licenced.
Q:1/4=100
M:3/4
L:1/8
P:AB2
K:G
P:A
V:1
%%score [1]
%%partsbox 1
%%voicecolor black
%%MIDI program 23 % Tango Accd.
G3 D B,2|D2 C2 A,2|(G,6|G,6)||
%%score [1 2 3 4]
P:B
V:1
%%voicecolor black
%%MIDI program 23 % Tango Accd.
|:D3 E D2|B,6|D3 E D2|B,6|A4 A2|F6|G4 G2|D6|
E4 E2|G3 F E2|D3 E D2|B,6|E4 E2|G3 F E2|D3 E D2|B,6|
A4 A2|c3 A F2|G6|B6|G3 D B,2|D2 C2 A,2|(G,6|G,6):|
V:2
%%voicecolor maroon
%%MIDI program 65 % Alto Sax
|:B,3 C B,2|G,6|B,3 C B,2|G,6|D4 C2|D6|D6|B,6|
C6|C6|B,3 C B,2|G,6|C6|E3 D C2|B,3 C B,2|G,6|
C6|[D6F6]|D6|G,6|D6|[D6F6]|[(B,6(G,6]|[B,6)G,6)]:|
V:3
%%voicecolor teal
%%MIDI program 42 % Cello
|:B,6|B,6|B,6|G,6|A,6|C3 A, F2|D6|B,6|
C6|E6|B,6|B,6|G,6|C6|D6|B,6|
A,6|C6|B,6|D6|B,6|A,6|(G,6|G,6):|
V:4
%%voicecolor blue
%%MIDI program 32 % Acoustic Bass
|:G,6|D6|G,6|D6|F6|A,6|B,6|G,6|
G,6|E6|G,6|D6|C6|G,6|G,6|D6|
D6|F6|G,6|B,6|G,6|D6|(D6|D6):|

